svg/furkot/public-domain/hotspring.svg

<svg viewBox="0 0 512 512" xmlns="http://www.w3.org/2000/svg"><path d="m185.168 208.785c-6.242-19.283-30.771-38.28-21.809-72.432 5.995-22.855 12.814-38.021 12.845-38.129 2.926-7.605 1.041-16.334-4.706-21.839-5.74-5.524-14.114-6.647-20.983-2.834-2.823 1.571-63.081 39.244-53.916 101.888 3.064 20.875 14.291 28.448 25.322 50.777 9.54 19.32-7.917 56.339-18.782 81.166-3.198 7.288-1.846 15.934 3.406 21.751 3.559 3.925 8.404 6.032 13.352 6.032 2.36 0 4.739-.476 7.009-1.465 29.939-13.029 80.652-55.883 58.262-124.915zm100.843-14.037c-6.243-21.428-30.772-42.537-21.809-80.481 5.994-25.393 12.813-42.245 12.845-42.367 2.918-8.455 1.04-18.147-4.701-24.268-5.74-6.133-14.113-7.39-20.988-3.152-2.823 1.745-63.082 43.601-53.917 113.218 3.058 23.19 14.285 31.606 25.316 56.415 9.545 21.465-7.911 62.606-18.782 90.186-3.203 8.106-1.852 17.703 3.4 24.161 3.558 4.377 8.41 6.717 13.351 6.717 2.36 0 4.739-.532 7.01-1.63 29.947-14.488 80.652-62.112 58.275-138.799zm102.758 14.037c-6.255-19.283-30.784-38.28-21.808-72.432 5.994-22.855 12.812-38.021 12.838-38.129 2.93-7.605 1.053-16.334-4.694-21.839-5.734-5.524-14.12-6.647-20.989-2.834-2.83 1.571-63.082 39.244-53.922 101.888 3.063 20.875 14.295 28.448 25.327 50.777 9.539 19.32-7.917 56.339-18.788 81.166-3.203 7.288-1.852 15.934 3.405 21.751 3.553 3.925 8.399 6.032 13.346 6.032 2.36 0 4.739-.476 7.004-1.465 29.945-13.029 80.652-55.883 58.281-124.915z"/><path d="m505.804 314.569c-22.48-87.554-82.594-97.918-85.872-98.319-7.359-.894-14.405 2.944-17.66 9.554-3.267 6.615-1.985 14.563 3.166 19.834.316.317 42.594 38.686 36.706 76.764-7.687 49.711-110.965 71.721-186.556 71.721-75.59 0-178.881-22.01-186.562-71.715-5.918-38.281 36.441-76.492 36.707-76.77 5.164-5.271 6.432-13.219 3.171-19.834-3.261-6.61-10.314-10.422-17.665-9.554-3.286.401-63.4 10.759-85.867 98.319-9.019 35.14-3.495 65.987 16.449 91.696 56.612 72.975 198.627 70.883 230 70.883 1.94 0 3.202-.018 3.761-.026.545.008 1.814.026 3.756.026h.005c31.392 0 173.383 2.087 230.001-70.883 19.943-25.69 25.474-56.549 16.46-91.696z"/></svg>

<svg viewBox="0 0 512 512" xmlns="http://www.w3.org/2000/svg"><path d="M 185.168 208.785 C 178.926 189.502 154.397 170.505 163.359 136.353 C 169.354 113.498 176.173 98.332 176.204 98.224 C 179.13 90.619 177.245 81.89 171.498 76.385 C 165.758 70.861 157.384 69.738 150.515 73.551 C 147.692 75.122 87.434 112.795 96.599 175.439 C 99.663 196.314 110.89 203.887 121.921 226.216 C 131.461 245.536 114.004 282.555 103.139 307.382 C 99.941 314.67 101.293 323.316 106.545 329.133 C 110.104 333.058 114.949 335.165 119.897 335.165 C 122.257 335.165 124.636 334.689 126.906 333.7 C 156.845 320.671 207.558 277.817 185.168 208.785 Z M 286.011 194.748 C 279.768 173.32 255.239 152.211 264.202 114.267 C 270.196 88.874 277.015 72.022 277.047 71.9 C 279.965 63.445 278.087 53.753 272.346 47.632 C 266.606 41.499 258.233 40.242 251.358 44.48 C 248.535 46.225 188.276 88.081 197.441 157.698 C 200.499 180.888 211.726 189.304 222.757 214.113 C 232.302 235.578 214.846 276.719 203.975 304.299 C 200.772 312.405 202.123 322.002 207.375 328.46 C 210.933 332.837 215.785 335.177 220.726 335.177 C 223.086 335.177 225.465 334.645 227.736 333.547 C 257.683 319.059 308.388 271.435 286.011 194.748 Z M 388.769 208.785 C 382.514 189.502 357.985 170.505 366.961 136.353 C 372.955 113.498 379.773 98.332 379.799 98.224 C 382.729 90.619 380.852 81.89 375.105 76.385 C 369.371 70.861 360.985 69.738 354.116 73.551 C 351.286 75.122 291.034 112.795 300.194 175.439 C 303.257 196.314 314.489 203.887 325.521 226.216 C 335.06 245.536 317.604 282.555 306.733 307.382 C 303.53 314.67 304.881 323.316 310.138 329.133 C 313.691 333.058 318.537 335.165 323.484 335.165 C 325.844 335.165 328.223 334.689 330.488 333.7 C 360.433 320.671 411.14 277.817 388.769 208.785 Z"/><path d="M 505.804 314.569 C 483.324 227.015 423.21 216.651 419.932 216.25 C 412.573 215.356 405.527 219.194 402.272 225.804 C 399.005 232.419 400.287 240.367 405.438 245.638 C 405.754 245.955 448.032 284.324 442.144 322.402 C 434.457 372.113 331.179 394.123 255.588 394.123 L 255.588 394.123 L 255.588 394.123 C 179.998 394.123 76.707 372.113 69.026 322.408 C 63.108 284.127 105.467 245.916 105.733 245.638 C 110.897 240.367 112.165 232.419 108.904 225.804 C 105.643 219.194 98.59 215.382 91.239 216.25 C 87.953 216.651 27.839 227.009 5.372 314.569 C -3.647 349.709 1.877 380.556 21.821 406.265 C 78.433 479.24 220.448 477.148 251.821 477.148 C 253.761 477.148 255.023 477.13 255.582 477.122 C 256.127 477.13 257.396 477.148 259.338 477.148 C 259.343 477.148 259.343 477.148 259.343 477.148 C 290.735 477.148 432.726 479.235 489.344 406.265 C 509.287 380.575 514.818 349.716 505.804 314.569 Z"/></svg>
